X:648
%%etbk:tnset id:383,pos:3,rep:3x,ant:
%%etbk:wsite https://thesession.org/tunes/342
%%etbk:pldat 2016-01-02T14:25,2015-12-29T17:22,2015-12-23T16:30,2015-12-13T15:51,2015-07-07T11:31,2015-06-03T19:30,2015-05-10T14:19,2015-04-08T18:29,2015-04-06T15:01,2015-04-04T15:39
T: The Cat's Meow
Z: Piano Box Version by Martin Fleischmann
H: Created 2015-03-27 /  Last Modified 2015-12-23
R: jig
M: 6/8
L: 1/8
K: Dmaj
D |: !2!F!3!A!5!d !3!fef | afe !1!d!2!BA | BdB B!1!A!2!F | !5!d!3!A!2!F !1!E2 E |
FAd fef | afe dBA | !2!B!3!de !5!f!3!d!2!B | !1!A!3!FE D2 :|
e |: !5!f!3!d!2!B AFA | !1!D!2!F!3!A !5!d!1!d!2!e | !4!gef ge!1!d | !3!ced cBA |
fdB AFA | DFA dde | !4!ge!1!c age | edc d2 :|
d |: !2!F!3!A!5!d !3!fef | agf agf | Ace !4!g2 !4!g | gfe gf!1!e |
!2!fef !3!gf!3!g | !4!aga bag |1 faa !3!g!1!e!2!c | !4!edc d2 :|2 fdB gec | dAF D2 ||


